Newaita-dark/emblems/48/vcs-update-required.svg

<svg height="48" viewBox="0 0 48 48" width="48" xmlns="http://www.w3.org/2000/svg"><path d="m253.892421-147.506445c-.208313 0-.458289 0-.666603 0-11.332251.416627-20.289729 9.749069-20.289729 21.08132v22.539514c-83.450364 10.415672-148.152519 81.700531-148.152519 167.942296 0 93.407746 75.826093 169.233839 169.233839 169.233839 93.366084 0 169.233839-75.826093 169.233839-169.233839.083326-7.582609-3.916292-14.665266-10.457335-18.498234-6.582704-3.832967-14.706928-3.832967-21.24797 0-6.582705 3.832968-10.540661 10.915625-10.457335 18.498234 0 70.784907-56.327954 127.112861-127.071199 127.112861-70.784907 0-127.112861-56.327954-127.112861-127.112861 0-63.577262 45.453993-115.488972 106.031541-125.404691v19.581463c0 15.665171 16.498425 25.830867 30.497088 18.831535l84.658582-42.329291c15.540183-7.74926 15.540183-29.91381 0-37.66307l-84.658582-42.329291c-2.958051-1.499857-6.249403-2.249785-9.540756-2.249785zm0 0" fill="none" stroke="#424242" stroke-linecap="round" stroke-linejoin="round" stroke-width="82" transform="matrix(.093759 0 0 .093759 0 20.158175)"/><path d="m23.804688 6.328125c-.019532 0-.042969 0-.0625 0-1.0625.039063-1.902344.914063-1.902344 1.976563v2.113281c-7.824219.976562-13.890625 7.660156-13.890625 15.746093 0 8.757813 7.109375 15.867188 15.867187 15.867188 8.753906 0 15.867188-7.109375 15.867188-15.867188.007812-.710937-.367188-1.375-.980469-1.734374-.617187-.359376-1.378906-.359376-1.992187 0-.617188.359374-.988282 1.023437-.980469 1.734374 0 6.636719-5.28125 11.917969-11.914063 11.917969-6.636718 0-11.917968-5.28125-11.917968-11.917969 0-5.960937 4.261718-10.828124 9.941406-11.757812v1.835938c0 1.46875 1.546875 2.421874 2.859375 1.765624l7.9375-3.96875c1.457031-.726562 1.457031-2.804687 0-3.53125l-7.9375-3.96875c-.277344-.140624-.585938-.210937-.894531-.210937zm0 0" fill="#fafafa"/></svg>

<?xml version="1.0" encoding="UTF-8"?>
<svg xmlns="http://www.w3.org/2000/svg" xmlns:xlink="http://www.w3.org/1999/xlink" width="48px" height="48px" viewBox="0 0 48 48" version="1.1">
<g id="surface1">
<path style="fill:none;stroke-width:82;stroke-linecap:round;stroke-linejoin:round;stroke:rgb(25.882354%,25.882354%,25.882354%);stroke-opacity:1;stroke-miterlimit:4;" d="M 253.892421 -147.506445 C 253.684108 -147.506445 253.434132 -147.506445 253.225818 -147.506445 C 241.893567 -147.089818 232.936089 -137.757376 232.936089 -126.425125 L 232.936089 -103.885611 C 149.485725 -93.469939 84.78357 -22.18508 84.78357 64.056685 C 84.78357 157.464431 160.609663 233.290524 254.017409 233.290524 C 347.383493 233.290524 423.251248 157.464431 423.251248 64.056685 C 423.334574 56.474076 419.334956 49.391419 412.793913 45.558451 C 406.211209 41.725484 398.086985 41.725484 391.545943 45.558451 C 384.963238 49.391419 381.005282 56.474076 381.088608 64.056685 C 381.088608 134.841592 324.760654 191.169546 254.017409 191.169546 C 183.232502 191.169546 126.904548 134.841592 126.904548 64.056685 C 126.904548 0.479423 172.358541 -51.432287 232.936089 -61.348006 L 232.936089 -41.766543 C 232.936089 -26.101372 249.434514 -15.935676 263.433177 -22.935008 L 348.091759 -65.264299 C 363.631942 -73.013559 363.631942 -95.178109 348.091759 -102.927369 L 263.433177 -145.25666 C 260.475126 -146.756517 257.183774 -147.506445 253.892421 -147.506445 Z M 253.892421 -147.506445 " transform="matrix(0.093759,0,0,0.093759,0,20.158175)"/>
<path style=" stroke:none;fill-rule:nonzero;fill:rgb(98.039216%,98.039216%,98.039216%);fill-opacity:1;" d="M 23.804688 6.328125 C 23.785156 6.328125 23.761719 6.328125 23.742188 6.328125 C 22.679688 6.367188 21.839844 7.242188 21.839844 8.304688 L 21.839844 10.417969 C 14.015625 11.394531 7.949219 18.078125 7.949219 26.164062 C 7.949219 34.921875 15.058594 42.03125 23.816406 42.03125 C 32.570312 42.03125 39.683594 34.921875 39.683594 26.164062 C 39.691406 25.453125 39.316406 24.789062 38.703125 24.429688 C 38.085938 24.070312 37.324219 24.070312 36.710938 24.429688 C 36.09375 24.789062 35.722656 25.453125 35.730469 26.164062 C 35.730469 32.800781 30.449219 38.082031 23.816406 38.082031 C 17.179688 38.082031 11.898438 32.800781 11.898438 26.164062 C 11.898438 20.203125 16.160156 15.335938 21.839844 14.40625 L 21.839844 16.242188 C 21.839844 17.710938 23.386719 18.664062 24.699219 18.007812 L 32.636719 14.039062 C 34.09375 13.3125 34.09375 11.234375 32.636719 10.507812 L 24.699219 6.539062 C 24.421875 6.398438 24.113281 6.328125 23.804688 6.328125 Z M 23.804688 6.328125 "/>
</g>
</svg>
